X: 1
T:Marry Me Now
T:I Wish You Would Marry Me Now
M:4/4
L:1/8
R:Reel
K:Amin
G  | EAAB c2 ce | dcBA GA (3BAG) | AE ~E2 c2 ce | dBgB ~A3   :|
g  | agea     geae  | gedg BGdB | agea     geae  | gegB ~A3|
g | agea     geae  | gedg BGdB |cAdB ecae|gegB A/2A/2A A2||
